X:1
T:Nulla in mundo, pax sincera
T:Nulla in mundo, pax sincera
T:Antonio Vivaldi
T:© 2005-2008 Paul R Marchesano. May be freely copied
T:© 2005-2008 Paul R Marchesano. May be freely copied
T:© 2005-2008 Paul R Marchesano. May be freely copied
T:© 2005-2008 Paul R Marchesano. May be freely copied
T:© 2005-2008 Paul R Marchesano. May be freely copied
T:© 2005-2008 Paul R Marchesano. May be freely copied
T:© 2005-2008 Paul R Marchesano. May be freely copied
T:© 2005-2008 Paul R Marchesano. May be freely copied
T:© 2005-2008 Paul R Marchesano. May be freely copied
T:© 2005-2008 Paul R Marchesano. May be freely copied
T:© 2005-2008 Paul R Marchesano. May be freely copied
T:© 2005-2008 Paul R Marchesano. May be freely copied
T:© 2005-2008 Paul R Marchesano. May be freely copied
T:© 2005-2008 Paul R Marchesano. May be freely copied
T:© 2005-2008 Paul R Marchesano. May be freely copied
T:© 2005-2008 Paul R Marchesano. May be freely copied
T:© 2005-2008 Paul R Marchesano. May be freely copied
T:© 2005-2008 Paul R Marchesano. May be freely copied
T:© 2005-2008 Paul R Marchesano. May be freely copied
C:Antonio Vivaldi
Z:© 2005-2008 Paul R Marchesano. May be freely copied
%%score 1 { ( 2 3 ) | 4 } 5 6
L:1/8
Q:1/4=72
M:12/8
K:Eb
V:1 treble nm="Soprano" snm="S"
V:2 treble nm="Organ" snm="Org."
V:3 treble 
V:4 bass 
V:5 bass nm="MusicXML Part"
V:6 treble nm="MusicXML Part"
V:1
"^Larghetto" z12 | z12 | z12 | z12 | z12 | z12 | z6 e>de E2 e | d>cd B3 e>dc B2 A | %8
w: ||||||Nul- * * la in|mun- * * do pax _ _ _ sin-|
 G>FG E3 c3- c2 c | f2 d B3 e3 e2 e | e>dc d3 c>de c2 B | =A2 f d2 c B6 | z12 | z12 | %14
w: ce- * * ra si- * ne|fel- * le, pu- ra et|ve- * * ra, Dul- * * * cis|Je- su, est in te.|||
 B>cd e2 g e>de c3 | c>dc F2 e d>cd B3 | e>fg e2- c _d3 c3 | e>fg e2 c _d3 c3 | f>gf d2- =B G3 f3 | %19
w: Nul- * * la in mun- * * do|pax _ _ _ sin- ce- * * ra|si- * * ne _ fel- le,|pu- * * ra et ve- ra,|Dul- * * cis _ Je- su,|
 e>fe d>cd c3 z2 z | z12 | z6 z3 c2 d | ede F2 e dcB f2 A | ABA f2 A A2 G e2 B | %24
w: est _ _ in _ _ te.||Nul- lain|mun- * do pax sin- ce- * ra si- ne|fel- * le, pu- raet ve- ra, Dul- cis|
 c/e/d/c/f f2 z B/d/c/B/e e2 z | A/c/B/A/f dcB A2 f dcB | AGA f2 d B2 e fed | e3 z3 f2- d B2- A | %28
w: Je- * * * * * * * * * * *|* * * * * * * * * su, pu- ra et|ve- * ra, Dul- cis Je- su, est _ in|te. Dul- * cis _|
 G2 e fed e6 | z12 | z12 | z12 | z12 | z3 z3 z3 c2 c | d3/2 e/d G2 f =edc B2 c | %35
w: Je- su, est _ in te.|||||In- ter|pœ- nas _ et tor- men- * ta et tor-|
 AGF f2 A A3/2 B/A f2 A | TA2 G e2 c _d2 f{e} d2 f |{e} _d2 f dec =B2 =d GBf | edc dc=B c3 z2 z | %39
w: men- * ta vi- vit a- ni- * ma con-|ten- ta vi- vit a- ni- ma con-|ten- ta cas- ti a- mo- ris cas- ti a-|mo- * ris so- * la spe.|
 z3 c2 c c3/2 e/d c2 c | c3/2 e/d c2 c _d3/2 e/d c2 B | AGF e2 c _dcB _c2 B | %42
w: vi- vit a- ni- * ma con-|ten- ta _ In- ter pœ- nas _ et tor-|men- * ta et tor- men- * ta cas- tia-|
 =A2 f T_d2 c B3 B3/2 d/c | _d2 d d2 d Td2 c B3/2 d/c | _d2 d d2 d Td2 c F2 =d | %45
w: mo- ris so- la spe. In- ter _|pœ- nas et tor- men- ta vi- vit _|a- ni- ma con- ten- ta cas- tia-|
 =BGc dcB c6!D.C.! || %46
w: mo- * ris so- * la spe.|
V:2
 e>de E2 e d>cd B3 | e>dc B2 A G>FG E3 | %2
 e/-B/e/-B/e/-B/ e/-B/e/-B/e/-B/ c/-A/c/-A/c/-A/ c/-A/c/-A/c/-A/ | %3
 f/-c/f/-c/f/-c/ f/-c/f/-c/f/-c/ d/-B/d/-B/d/-B/ d/-B/d/-B/d/-B/ | %4
 g/-d/g/-d/g/-d/ g/-d/g/-d/g/-d/ e/-c/e/-c/e/-c/ e/-c/e/-c/e/-c/ | %5
 a/-e/a/-e/a/-e/ a/-e/a/-e/a/-e/ [Fd]>c[DB] [fb]2 [da] | g>fe e>fd e3 z2 z | F3 [FB]3 B2 c F2 A | %8
 [B,EG]6 z2 G c3- | c3 B3- B2 =A c2 A | F3 B3- B2 G c2 e | [=Ace]2 [Fd] [FBd]2 [EAc] [DF]6 | %12
 a/-B/a/-B/a/-B/ a/-B/a/-B/a/-B/ g/-e/g/-e/g/-e/ g/-e/g/-e/g/-e/ | %13
 =a/-f/a/-f/a/-f/ b/-d/b/-d/b/-d/ b/-c/b/-c/b/-c/ a/-c/a/-c/a/c/ | [dfb]3 [Be]3 [Ec]3 [Ec]3 | %15
 [EFc]3 [EFc]3 [DFB]3 [DFB]3 | [EB]3- [EB]2 [Gc] [A_d]3 [Gc]3 | [EB]3- [EB]2 G A3 [CG]3 | G6 G6 | %19
 z2 z z2 z g/-c/g/-c/g/-c/ g/-c/g/-c/g/-c/ | %20
 a/-c/a/-c/a/-c/ a/-c/a/-c/a/-c/ =B/-G/B/-G/B/-G/ c/-E/c/-E/c/-E/ | %21
 c/-F/c/-F/c/-F/ B/-G/B/-G/B/-G/ [EGc]6 | [EF]6 !breath![DF]6 | F3 B3- B3 e3 | %24
 z2 z f/-c/f/-c/f/-c/ f2 z e/-B/e/-B/e/-B/ | %25
 e2 z f/-d/f/-d/f/-d/ (B/-d/f/-d/f/-d/) (B/-d/f/-d/f/-d/) | %26
 (B/-d/f/-d/f/-d/) (B/-d/f/-d/f/-d/) g/-e/g/-e/g/-e/ d/-B/d/-B/d/-B/ | [Ge]3 [GB]3 [FB]3 [DFB]3 | %28
 G2 B F2 F e/-B/e/-B/e/-B/ e/-B/e/-B/e/-B/ | %29
 c/-A/c/-A/c/-A/ c/-A/c/-A/c/-A/ f/-c/f/-c/f/-c/ f/-c/f/-c/f/-c/ | %30
 d/-B/d/-B/d/-B/ d/-B/d/-B/d/-B/ g/-d/g/-d/g/-d/ g/-d/g/-d/g/-d/ | %31
 e/-c/e/-c/e/-c/ e/-c/e/-c/e/-c/ a/-e/a/-e/a/-e/ a/-e/a/-e/a/-e/ | d>cB [fb]2 [da] g>fe e>fd | %33
 e/b/g/e/B/G/ !fermata!TE3 z2 G c3 | z2 d G3- G2 c C3- | [A,C]3 A3 F3 D3 | B,3 C3 _D3- [DF]3 | %37
 A3 _d2 c [GB]3 [G=d]3 | [EGc]3 [DG=B]3 [EGc]2 [EG] [FA]>[G_B][FA] | %39
"^Ossia" [EG]3 [CA]3 [CG]3 [CA]3 | [CG]3 [CA]3 [B,G]6 | [CF]6 [_DF]3 [_C_G]2 [B,G] | %42
 [CF]2 [_DF] [B,F]2 [=A,F] [B,F]6 | [B,G]6 [A,F]3 [B,F]3 | [B,G]6 [A,F]3 [CA]2 [DG] | %45
 [DG]2 [CG] [FA][CA]G c6 || %46
V:3
 z6 F2 F D3 | B2 E F2 D B,3 G,3 | x12 | x12 | x12 | x12 | B2 B c2 F G3 z2 z | D3 D3 E3 F2 D | %8
 [B,EG]6 z2 z z2 G | F6 E6 | E3 D>EF C3 z2 G | z6 f/-B/f/-B/f/-B/ f/-B/f/-B/f/-B/ | x12 | x12 | %14
 x12 | x12 | x12 | x12 | D2 E F3- F>ED- D>EF | [EG]2 [CA] [CD]2 [=B,D] [CE]3- [CE]2 G | x12 | x12 | %22
 x12 | D3- D2 F E3 G3- | x12 | x12 | x12 | x12 | E3 E2 D G6 | x12 | x12 | x12 | %32
 A2 D z3 [EG]3 [EF]2 [DF] | [B,EG] z z z2 z E6 | [DF]6 [C=E]3 B,3 | x12 | x12 | F6 D3 F3 | x12 | %39
 x12 | x12 | x12 | x12 | x12 | x12 | x12 || %46
V:4
 z6 B,>A,B, B,,2 B, | G,2 A, D,2 B,, E,3 E,,3 | B,3 B,3 E3 E3 | C3 C3 F3 F3 | D3 D3 G3 G3 | %5
 E3 E3 z2 z z2 z | z12 | B,>A,B, B,,2 B, G,2 A, D,2 B,, | E,3 E,,3 E>DE E,2 E | %9
 D2 D, D,3 C>B,C =A,2 F, | B,2 B,, B,,3 E,2 E, E,2 E, | F,2 B,, F,2 z z2 z z2 z | %12
 [D-F]3 [DA]3 [EG]3 [GB]3 | [=Ac]3 [FB]3 [GB]3 [FA]3 | B,2 B, G,2 G, A,2 A,, A,,3 | %15
 =A,2 A, A,2 F, B,2 B,, B,,3 | G,2 G, G,2 E, F,3 E,3 | G,2 G, G,2 E, F,3 E,3 | %18
 =B,,2 B,, B,,2 B,, B,,2 B,, B,,2 B,, | C,2 F, G,2 z z2 z z2 z | [A,C]6 [=B,D]3 [G,C]3 | %21
 [F,A,]3 [=B,D]2 [G,D] C>B,C C,2 _B,, | =A,,2 A,, A,,2 A,, B,,2 B,, B,,2 B,, | %23
 B,,2 B,, B,,2 B,, E,>D,E, E,,2 G, | [A,C]2 [A,C] [A,C]3 [G,B,]3 [G,B,]3 | %25
 [E,A,]3 [D,A,]3 [D,A,]3 [F,A,]3 | F3 A3 G3 F3 | E>DE E,2 E D2 B, B,,2 D, | %28
 E,2 G, A,2 B, z2 z z2 z | E6 C6 | F6 G6 | G6 E6 | z12 | z12 | z12 | z12 | z12 | z12 | z12 | %39
 E,2 E, F,2 F, E,2 E, F,2 F, | E,2 E, F,2 F, =E,2 E, E,2 E, | F,2 F, =A,,2 A,, B,,2 B,, E,2 E, | %42
 F,2 B,, F,2 F, B,,2 B,, B,,2 B,, | =E,2 E, E,2 E, F,2 F, B,,2 B,, | =E,2 E, E,2 E, F,2 F, F,2 F, | %45
 G,2 E, F,2 G, C,6 || %46
V:5
 z12 | z12 | G,G,G, G,G,G, A,A,A, A,A,A, | =A,A,A, A,A,A, B,B,B, B,B,B, | =B,B,B, B,B,B, CCC CCC | %5
 CCC CCC B,2 B,, D,2 B,, | E,2 G, A,2 B, E,3 z2 z | z12 | z12 | z12 | z12 | %11
 z2 z z2 F,, B,,2 B,, B,,2 B,, | B,,2 B,, B,,2 B,, E,2 E, E,2 E, | E,2 E, D,2 D, E,2 E, F,2 F, | %14
 B,,2 z z2 z z2 z z2 z | z12 | z12 | z12 | z12 | z2 z z2 G,, C,2 C, C,2 C, | %20
 F,2 F, F,2 F, F,2 F, E,2 E, | D,2 D, G,,2 G,,2 z z z2 z | z12 | z12 | z12 | %25
 F,2 F, B,,2 B,, B,,2 B,, B,,2 B,, | B,,2 B,, B,,2 B,, E,2 E, B,2 B,, | z12 | z6 E,E,E, G,G,G, | %29
 A,A,A, A,A,A, =A,A,A, A,A,A, | B,B,B, B,B,B, =B,B,B, B,B,B, | CCC CCC CCC CCC | %32
 B,2 B,, D,2 B,, E,2 G, A,2 B, | E,3 !fermata!z2 z C,2 C, C,2 C, | %34
 C,2 C, =B,,2 B,, _B,,2 B,, =E,,2 E,, | F,,2 F, F,2 F, D,2 D, B,,2 B,, | %36
 E,2 E, E,2 E, F,2 F, F,2 F, | F,2 F, F,2 F, G,2 G, =B,,2 B,, | C,2 C, G,2 G,, C,2 C, F,2 F, | %39
 C,3 z2 z z2 z z2 z | z12 | z12 | z12 | z12 | z12 | z12 || %46
V:6
 z12 | z12 | z12 | z12 | z12 | z12 | z12 | z12 | z12 | z12 | z12 | z12 | z12 | z12 | z12 | z12 | %16
 z12 | z12 | z12 | z12 | z12 | z12 | z12 | z12 | z12 | z12 | z12 | z12 | z12 | z12 | z12 | z12 | %32
 z12 | z12 | z12 | z12 | z12 | z12 | z12 | [EG]3 a/-c/a/-c/a/-c/ g/-c/g/-c/g/-c/ a/-c/a/-c/a/-c/ | %40
 g/-c/g/-c/g/-c/ a/-c/a/-c/a/-c/ g/-B/g/-B/g/-B/ g/-B/g/-B/g/-B/ | %41
 f/-c/f/-c/f/-c/ f/-c/f/-c/f/-c/ f/-_d/f/-d/f/-d/ _g/-_c/g/-c/g/B/ | %42
 f/-c/f/-c/f/-_d/ f/-B/f/-B/f/-=A/ f/-B/f/-B/f/-B/ f/-B/f/-B/f/-B/ | %43
 g/-B/g/-B/g/-B/ g/-B/g/-B/g/-B/ f/-A/f/-A/f/-A/ f/-B/f/-B/f/-B/ | %44
 g/-B/g/-B/g/-B/ g/-B/g/-B/g/-B/ f/-A/f/-A/f/-A/ a/-c/a/-c/g/-d/ | %45
 g/-d/g/-d/g/-c/ a/-f/a/c/g/d/ c6 || %46

